gama.ui.shared/icons_svg/light/generic/menu.cut.svg

<svg height="25" viewBox="-817.353 -3654.985 25 25" width="25" xmlns="http://www.w3.org/2000/svg"><g fill="none"><path d="m-813.0129-3654.485h16.32c2.1208 0 3.84 1.719 3.84 3.84v16.32c0 2.1206-1.7192 3.84-3.84 3.84h-16.32c-2.1208 0-3.84-1.7194-3.84-3.84v-16.32c0-2.121 1.7192-3.84 3.84-3.84z" fill="#fff"/><path d="m-813.0129-3654.485h16.32c2.1208 0 3.84 1.719 3.84 3.84v16.32c0 2.1206-1.7192 3.84-3.84 3.84h-16.32c-2.1208 0-3.84-1.7194-3.84-3.84v-16.32c0-2.121 1.7192-3.84 3.84-3.84z" stroke="#000" stroke-linecap="round" stroke-linejoin="round" stroke-width=".25"/><path d="m-801.2974-3649.4254h-4.88885c-.73775 0-1.33335.5954-1.33335 1.3334v8c0 .7377.5956 1.3333 1.33335 1.3333h6.22225c.73775 0 1.3333-.5956 1.3333-1.3333v-6.6667h-2.2222c-.2489 0-.4445-.1956-.4445-.4443zm3.5556 2.2489v7.0845c0 1.2266-.9956 2.222-2.2222 2.222h-6.22225c-1.22665 0-2.22225-.9954-2.22225-2.222v-8c0-1.2267.9956-2.2223 2.22225-2.2223h5.30665c.1156 0 .24.0356.3378.1333l2.6667 2.6667c.0977.0978.1333.2223.1333.3378zm-2.6667-.4711h1.1467l-1.1467-1.1467zm-4.8889 2.6666c-.24885 0-.4444-.1955-.4444-.4444s.19555-.4446.4444-.4446h4.4445c.2489 0 .4444.1957.4444.4446s-.1955.4444-.4444.4444zm0 1.778c-.24885 0-.4444-.1957-.4444-.4446s.19555-.4444.4444-.4444h4.4445c.2489 0 .4444.1955.4444.4444s-.1955.4446-.4444.4446zm0 1.7776c-.24885 0-.4444-.1956-.4444-.4446 0-.2487.19555-.4443.4444-.4443h3.5556c.2489 0 .4444.1956.4444.4443 0 .249-.1955.4446-.4444.4446zm-6.6666-.4446c0-.2487.1955-.4443.4444-.4443s.4445.1956.4445.4443v2.667c0 .2487-.1956.4443-.4445.4443s-.4444-.1956-.4444-.4443zm4 7.5557c-.2489 0-.4445-.1957-.4445-.4444 0-.2489.1956-.4443.4445-.4443h2.6666c.2489 0 .4445.1954.4445.4443 0 .2487-.1956.4444-.4445.4444zm-1.7778-12.4444c.2489 0 .4444.1957.4444.4444 0 .2489-.1955.4443-.4444.4443-.7378 0-1.3333.5957-1.3333 1.3335 0 .2489-.1956.4445-.4445.4445s-.4444-.1956-.4444-.4445c0-1.2265.9955-2.2222 2.2222-2.2222zm-2.2222 10.2222c0-.2489.1955-.4445.4444-.4445s.4445.1956.4445.4445c0 .7378.5955 1.3335 1.3333 1.3335.2489 0 .4444.1954.4444.4443 0 .2487-.1955.4444-.4444.4444-1.2267 0-2.2222-.9957-2.2222-2.2222zm8.4444 2.2222c-.2489 0-.4444-.1957-.4444-.4444 0-.2489.1955-.4443.4444-.4443.7378 0 1.33335-.5957 1.33335-1.3335 0-.2489.19555-.4445.44445-.4445s.4444.1956.4444.4445c0 1.2265-.9955 2.2222-2.2222 2.2222z" fill="#5c76a1"/></g></svg>

<?xml version="1.0" encoding="UTF-8" standalone="no"?>
<!DOCTYPE svg PUBLIC "-//W3C//DTD SVG 1.1//EN" "http://www.w3.org/Graphics/SVG/1.1/DTD/svg11.dtd">
<svg version="1.1" xmlns="http://www.w3.org/2000/svg" xmlns:xl="http://www.w3.org/1999/xlink" xmlns:dc="http://purl.org/dc/elements/1.1/" viewBox="-817.3529 -3654.985 25 25" width="25" height="25">
  <defs/>
  <g id="SOURCES" stroke-dasharray="none" fill="none" stroke="none" fill-opacity="1" stroke-opacity="1">
    <title>SOURCES</title>
    <g id="SOURCES_Calque_2">
      <title>Calque 2</title>
      <g id="Graphic_9241">
        <path d="M -813.0129 -3654.485 L -796.6929 -3654.485 C -794.5721 -3654.485 -792.8529 -3652.766 -792.8529 -3650.645 L -792.8529 -3634.325 C -792.8529 -3632.2044 -794.5721 -3630.485 -796.6929 -3630.485 L -813.0129 -3630.485 C -815.1337 -3630.485 -816.8529 -3632.2044 -816.8529 -3634.325 L -816.8529 -3650.645 C -816.8529 -3652.766 -815.1337 -3654.485 -813.0129 -3654.485 Z" fill="white"/>
        <path d="M -813.0129 -3654.485 L -796.6929 -3654.485 C -794.5721 -3654.485 -792.8529 -3652.766 -792.8529 -3650.645 L -792.8529 -3634.325 C -792.8529 -3632.2044 -794.5721 -3630.485 -796.6929 -3630.485 L -813.0129 -3630.485 C -815.1337 -3630.485 -816.8529 -3632.2044 -816.8529 -3634.325 L -816.8529 -3650.645 C -816.8529 -3652.766 -815.1337 -3654.485 -813.0129 -3654.485 Z" stroke="black" stroke-linecap="round" stroke-linejoin="round" stroke-width=".25"/>
      </g>
      <g id="Group_9278">
        <title>cut</title>
        <g id="Graphic_9279">
          <path d="M -801.2974 -3649.4254 L -806.18625 -3649.4254 C -806.924 -3649.4254 -807.5196 -3648.83 -807.5196 -3648.092 L -807.5196 -3640.092 C -807.5196 -3639.3543 -806.924 -3638.7587 -806.18625 -3638.7587 L -799.964 -3638.7587 C -799.22625 -3638.7587 -798.6307 -3639.3543 -798.6307 -3640.092 L -798.6307 -3646.7587 L -800.8529 -3646.7587 C -801.1018 -3646.7587 -801.2974 -3646.9543 -801.2974 -3647.203 Z M -797.7418 -3647.1765 L -797.7418 -3640.092 C -797.7418 -3638.8654 -798.7374 -3637.87 -799.964 -3637.87 L -806.18625 -3637.87 C -807.4129 -3637.87 -808.4085 -3638.8654 -808.4085 -3640.092 L -808.4085 -3648.092 C -808.4085 -3649.3187 -807.4129 -3650.3143 -806.18625 -3650.3143 L -800.8796 -3650.3143 C -800.764 -3650.3143 -800.6396 -3650.2787 -800.5418 -3650.181 L -797.8751 -3647.5143 C -797.7774 -3647.4165 -797.7418 -3647.292 -797.7418 -3647.1765 Z M -800.4085 -3647.6476 L -799.2618 -3647.6476 L -800.4085 -3648.7943 Z M -805.2974 -3644.981 C -805.54625 -3644.981 -805.7418 -3645.1765 -805.7418 -3645.4254 C -805.7418 -3645.6743 -805.54625 -3645.87 -805.2974 -3645.87 L -800.8529 -3645.87 C -800.604 -3645.87 -800.4085 -3645.6743 -800.4085 -3645.4254 C -800.4085 -3645.1765 -800.604 -3644.981 -800.8529 -3644.981 Z M -805.2974 -3643.203 C -805.54625 -3643.203 -805.7418 -3643.3987 -805.7418 -3643.6476 C -805.7418 -3643.8965 -805.54625 -3644.092 -805.2974 -3644.092 L -800.8529 -3644.092 C -800.604 -3644.092 -800.4085 -3643.8965 -800.4085 -3643.6476 C -800.4085 -3643.3987 -800.604 -3643.203 -800.8529 -3643.203 Z M -805.2974 -3641.4254 C -805.54625 -3641.4254 -805.7418 -3641.621 -805.7418 -3641.87 C -805.7418 -3642.1187 -805.54625 -3642.3143 -805.2974 -3642.3143 L -801.7418 -3642.3143 C -801.4929 -3642.3143 -801.2974 -3642.1187 -801.2974 -3641.87 C -801.2974 -3641.621 -801.4929 -3641.4254 -801.7418 -3641.4254 Z M -811.964 -3641.87 C -811.964 -3642.1187 -811.7685 -3642.3143 -811.5196 -3642.3143 C -811.2707 -3642.3143 -811.0751 -3642.1187 -811.0751 -3641.87 L -811.0751 -3639.203 C -811.0751 -3638.9543 -811.2707 -3638.7587 -811.5196 -3638.7587 C -811.7685 -3638.7587 -811.964 -3638.9543 -811.964 -3639.203 Z M -807.964 -3634.3143 C -808.2129 -3634.3143 -808.4085 -3634.51 -808.4085 -3634.7587 C -808.4085 -3635.0076 -808.2129 -3635.203 -807.964 -3635.203 L -805.2974 -3635.203 C -805.0485 -3635.203 -804.8529 -3635.0076 -804.8529 -3634.7587 C -804.8529 -3634.51 -805.0485 -3634.3143 -805.2974 -3634.3143 Z M -809.7418 -3646.7587 C -809.4929 -3646.7587 -809.2974 -3646.563 -809.2974 -3646.3143 C -809.2974 -3646.0654 -809.4929 -3645.87 -809.7418 -3645.87 C -810.4796 -3645.87 -811.0751 -3645.2743 -811.0751 -3644.5365 C -811.0751 -3644.2876 -811.2707 -3644.092 -811.5196 -3644.092 C -811.7685 -3644.092 -811.964 -3644.2876 -811.964 -3644.5365 C -811.964 -3645.763 -810.9685 -3646.7587 -809.7418 -3646.7587 Z M -811.964 -3636.5365 C -811.964 -3636.7854 -811.7685 -3636.981 -811.5196 -3636.981 C -811.2707 -3636.981 -811.0751 -3636.7854 -811.0751 -3636.5365 C -811.0751 -3635.7987 -810.4796 -3635.203 -809.7418 -3635.203 C -809.4929 -3635.203 -809.2974 -3635.0076 -809.2974 -3634.7587 C -809.2974 -3634.51 -809.4929 -3634.3143 -809.7418 -3634.3143 C -810.9685 -3634.3143 -811.964 -3635.31 -811.964 -3636.5365 Z M -803.5196 -3634.3143 C -803.7685 -3634.3143 -803.964 -3634.51 -803.964 -3634.7587 C -803.964 -3635.0076 -803.7685 -3635.203 -803.5196 -3635.203 C -802.7818 -3635.203 -802.18625 -3635.7987 -802.18625 -3636.5365 C -802.18625 -3636.7854 -801.9907 -3636.981 -801.7418 -3636.981 C -801.4929 -3636.981 -801.2974 -3636.7854 -801.2974 -3636.5365 C -801.2974 -3635.31 -802.2929 -3634.3143 -803.5196 -3634.3143 Z" fill="#5c76a1"/>
        </g>
      </g>
    </g>
  </g>
</svg>
